docs/style/images/js.svg

<svg width="448" height="448" xmlns="http://www.w3.org/2000/svg"><path d="M400 0H48C21.5 0 0 21.5 0 48v352c0 26.5 21.5 48 48 48h352c26.5 0 48-21.5 48-48V48c0-26.5-21.5-48-48-48zM243.8 349.4c0 43.6-25.6 63.5-62.9 63.5-33.7 0-53.2-17.4-63.2-38.5l34.3-20.7c6.6 11.7 12.6 21.6 27.1 21.6 13.8 0 22.6-5.4 22.6-26.5V205.7h42.1v143.7zm99.6 63.5c-39.1 0-64.4-18.6-76.7-43l34.3-19.8c9 14.7 20.8 25.6 41.5 25.6 17.4 0 28.6-8.7 28.6-20.8 0-14.4-11.4-19.5-30.7-28l-10.5-4.5c-30.4-12.9-50.5-29.2-50.5-63.5 0-31.6 24.1-55.6 61.6-55.6 26.8 0 46 9.3 59.8 33.7L368 258c-7.2-12.9-15-18-27.1-18-12.3 0-20.1 7.8-20.1 18 0 12.6 7.8 17.7 25.9 25.6l10.5 4.5c35.8 15.3 55.9 31 55.9 66.2 0 37.8-29.8 58.6-69.7 58.6z" fill="#3C3C3C"/></svg>

<?xml version="1.0" encoding="UTF-8"?>
<svg width="448px" height="448px" viewBox="0 0 448 448" version="1.1" xmlns="http://www.w3.org/2000/svg" xmlns:xlink="http://www.w3.org/1999/xlink">
    <!-- Generator: Sketch 48.2 (47327) - http://www.bohemiancoding.com/sketch -->
    <title>js</title>
    <desc>Created with Sketch.</desc>
    <defs></defs>
    <g id="Page-1" stroke="none" stroke-width="1" fill="none" fill-rule="evenodd">
        <g id="js" fill="#3C3C3C" fill-rule="nonzero">
            <path d="M400,0 L48,0 C21.5,0 0,21.5 0,48 L0,400 C0,426.5 21.5,448 48,448 L400,448 C426.5,448 448,426.5 448,400 L448,48 C448,21.5 426.5,0 400,0 Z M243.8,349.4 C243.8,393 218.2,412.9 180.9,412.9 C147.2,412.9 127.7,395.5 117.7,374.4 L152,353.7 C158.6,365.4 164.6,375.3 179.1,375.3 C192.9,375.3 201.7,369.9 201.7,348.8 L201.7,205.7 L243.8,205.7 L243.8,349.4 Z M343.4,412.9 C304.3,412.9 279,394.3 266.7,369.9 L301,350.1 C310,364.8 321.8,375.7 342.5,375.7 C359.9,375.7 371.1,367 371.1,354.9 C371.1,340.5 359.7,335.4 340.4,326.9 L329.9,322.4 C299.5,309.5 279.4,293.2 279.4,258.9 C279.4,227.3 303.5,203.3 341,203.3 C367.8,203.3 387,212.6 400.8,237 L368,258 C360.8,245.1 353,240 340.9,240 C328.6,240 320.8,247.8 320.8,258 C320.8,270.6 328.6,275.7 346.7,283.6 L357.2,288.1 C393,303.4 413.1,319.1 413.1,354.3 C413.1,392.1 383.3,412.9 343.4,412.9 Z" id="Shape"></path>
        </g>
    </g>
</svg>
